X:294
T:score91
L:1/8
Q:1/4=96
M:4/4
I:linebreak $
K:D
 (a4 g<f e<d | g3 e c2) z2 | (g4 f<e d<c |$ a3 f d2) z2 | .b(b/a/ .b).c' d'2 z .a | %5
 (.bb/a/ .b).c' d'2 z .a |$ (a^g=ge g^efd | f/e/d/c/ B/A/^G/A/ B/c/d/e/ =f/^f/g/^g/ | a4) z2 z2 |] %9
